flaticon/hand-gestures/stop.svg

<svg xmlns="http://www.w3.org/2000/svg" width="32" height="32" viewBox="0 0 24 24">
    <path d="M 19.605469 6.398438 C 19.164062 6.398438 18.726562 6.558594 18.40625 6.800781 L 18.40625 3.601562 C 18.40625 2.480469 17.527344 1.601562 16.40625 1.601562 C 15.964844 1.601562 15.527344 1.800781 15.207031 2.078125 L 15.207031 2 C 15.207031 0.878906 14.324219 0 13.207031 0 C 12.046875 0 11.207031 0.800781 11.207031 1.960938 C 10.886719 1.71875 10.484375 1.601562 10.003906 1.601562 C 8.886719 1.601562 8.003906 2.480469 8.003906 3.601562 L 8.003906 11.078125 C 7.125 9.558594 5.046875 8.761719 3.527344 9.359375 C 3.324219 9.398438 3.164062 9.519531 2.964844 9.640625 C 2.367188 10.039062 2.40625 10.558594 2.40625 10.71875 C 2.367188 10.960938 2.40625 11 2.964844 11.640625 C 3.644531 12.441406 5.125 14.121094 6.046875 15.800781 C 6.125 15.878906 7.207031 17.640625 8.40625 18.960938 L 8.40625 20 C 8.40625 22.199219 10.207031 24 12.40625 24 L 16.40625 24 C 18.125 24 19.925781 22.558594 20.324219 20.878906 C 20.445312 20.398438 20.566406 20.039062 20.726562 19.878906 C 21.125 19.398438 21.605469 18.28125 21.605469 16.800781 C 21.605469 16.558594 21.605469 13.640625 21.605469 13.238281 L 21.605469 8.398438 C 21.605469 7.28125 20.726562 6.398438 19.605469 6.398438 Z M 16.445312 23.199219 L 12.445312 23.199219 C 10.6875 23.199219 9.246094 21.761719 9.246094 20 L 9.246094 19.800781 C 9.433594 19.980469 9.613281 20.128906 9.726562 20.28125 C 9.964844 20.519531 10.207031 20.359375 10.285156 20.320312 C 10.484375 20.160156 10.484375 19.921875 10.324219 19.761719 C 10.207031 19.601562 9.964844 19.398438 9.765625 19.199219 C 9.566406 19.003906 9.371094 18.804688 9.21875 18.652344 C 9.199219 18.605469 9.167969 18.5625 9.125 18.519531 C 7.925781 17.28125 6.765625 15.398438 6.765625 15.398438 C 5.804688 13.679688 4.285156 11.960938 3.566406 11.121094 C 3.445312 10.960938 3.285156 10.761719 3.207031 10.679688 C 3.207031 10.558594 3.207031 10.480469 3.445312 10.320312 C 3.605469 10.238281 3.726562 10.160156 3.84375 10.121094 C 4.886719 9.761719 6.605469 10.238281 7.367188 11.558594 L 8.085938 12.640625 L 8.445312 13.359375 C 8.527344 13.519531 8.925781 13.601562 8.964844 13.519531 C 9.125 13.441406 9.207031 13.199219 9.125 13 L 8.804688 12.359375 L 8.804688 3.601562 C 8.804688 2.921875 9.324219 2.398438 10.003906 2.398438 C 10.765625 2.398438 11.207031 2.921875 11.246094 3.71875 L 11.246094 11.71875 C 11.246094 11.960938 11.40625 12.121094 11.644531 12.121094 C 11.886719 12.121094 12.046875 11.960938 12.046875 11.71875 L 12.046875 2 C 12.046875 1.121094 12.683594 0.800781 13.246094 0.800781 C 13.925781 0.800781 14.445312 1.320312 14.445312 2 L 14.445312 8.398438 C 14.445312 8.640625 14.605469 8.800781 14.84375 8.800781 C 15.085938 8.800781 15.246094 8.640625 15.246094 8.398438 L 15.246094 3.601562 C 15.246094 3.199219 15.804688 2.398438 16.445312 2.398438 C 17.125 2.398438 17.644531 2.921875 17.644531 3.601562 L 17.644531 11.199219 C 17.644531 11.441406 17.804688 11.601562 18.046875 11.601562 C 18.285156 11.601562 18.445312 11.441406 18.445312 11.199219 L 18.445312 8.398438 C 18.445312 7.71875 18.964844 7.199219 19.644531 7.199219 C 20.324219 7.199219 20.84375 7.71875 20.84375 8.398438 L 20.84375 13.199219 C 20.84375 13.558594 20.84375 16.519531 20.84375 16.800781 C 20.84375 17.542969 20.703125 18.140625 20.535156 18.578125 C 20.496094 18.617188 20.46875 18.667969 20.445312 18.71875 C 20.367188 19.039062 20.125 19.359375 19.085938 19.640625 C 18.886719 19.679688 18.765625 19.921875 18.804688 20.121094 C 18.886719 20.28125 19.046875 20.398438 19.207031 20.398438 C 19.246094 20.398438 19.285156 20.398438 19.285156 20.398438 C 19.40625 20.367188 19.535156 20.332031 19.660156 20.289062 C 19.625 20.414062 19.59375 20.542969 19.566406 20.679688 C 19.285156 22.039062 17.804688 23.199219 16.445312 23.199219 Z M 16.445312 23.199219"/>
</svg>

<svg xmlns="http://www.w3.org/2000/svg" width="32" height="32" viewBox="0 0 24 24">
    <path d="M19.605 6.398c-.44 0-.878.16-1.199.403V3.6c0-1.12-.879-2-2-2-.441 0-.879.2-1.199.477V2c0-1.121-.883-2-2-2-1.16 0-2 .8-2 1.96-.32-.241-.723-.358-1.203-.358-1.117 0-2 .878-2 2v7.476c-.879-1.52-2.957-2.316-4.477-1.719-.203.04-.363.16-.562.282-.598.398-.559.918-.559 1.078-.039.242 0 .281.559.922.68.8 2.16 2.48 3.082 4.16.078.078 1.16 1.84 2.36 3.16V20c0 2.2 1.8 4 4 4h4c1.718 0 3.519-1.441 3.917-3.121.121-.48.242-.84.403-1 .398-.48.878-1.598.878-3.078V8.398c0-1.117-.878-2-2-2zM16.445 23.2h-4A3.208 3.208 0 0 1 9.246 20v-.2c.188.18.367.329.48.481.239.239.481.078.56.04.198-.16.198-.4.038-.56-.117-.16-.36-.363-.558-.562-.2-.195-.395-.394-.547-.547a.415.415 0 0 0-.094-.132c-1.2-1.239-2.36-3.122-2.36-3.122-.96-1.718-2.48-3.437-3.199-4.277a6.661 6.661 0 0 0-.359-.441c0-.121 0-.2.238-.36.16-.082.282-.16.399-.199 1.043-.36 2.761.117 3.523 1.438l.719 1.082.36.718c.081.16.48.243.519.16.16-.078.242-.32.16-.519l-.32-.64V3.601c0-.68.52-1.204 1.199-1.204.762 0 1.203.524 1.242 1.32v8c0 .243.16.403.399.403.242 0 .402-.16.402-.402V2c0-.879.637-1.2 1.2-1.2.679 0 1.198.52 1.198 1.2v6.398c0 .243.16.403.399.403.242 0 .402-.16.402-.403V3.602c0-.403.559-1.204 1.2-1.204.679 0 1.199.524 1.199 1.204v7.597c0 .242.16.403.402.403.238 0 .398-.16.398-.403V8.4c0-.68.52-1.2 1.2-1.2.68 0 1.199.52 1.199 1.2V16.8c0 .742-.14 1.34-.309 1.777a.48.48 0 0 0-.09.14c-.078.321-.32.641-1.36.923-.198.039-.32.28-.28.48.082.16.242.277.402.277h.078c.121-.03.25-.066.375-.109a5.207 5.207 0 0 0-.094.39c-.28 1.36-1.761 2.52-3.12 2.52zm0 0"/>
</svg>
